<?xml version="1.0" encoding="UTF-8"?>
<map version="1.10" tiledversion="1.11.0" orientation="orthogonal" renderorder="right-down" width="64" height="16" tilewidth="128" tileheight="128" infinite="0" nextlayerid="7" nextobjectid="1">
 <tileset firstgid="1" source="../../../../Dystopia-App-Web/source_code/scenes/levels/godot_128x_dungeon_tileset.tsj"/>
 <imagelayer id="4" name="Image Layer 1" offsetx="1036" offsety="1512" repeatx="1">
  <image source="../../../../Dystopia-App-Web/public/Desert_background_1.png" width="256" height="242"/>
 </imagelayer>
 <imagelayer id="6" name="Image Layer 3" offsetx="1836" offsety="1526.67" repeatx="1">
  <image source="../../../../Dystopia-App-Web/public/Desert_background_3.png" width="256" height="242"/>
 </imagelayer>
 <imagelayer id="5" name="Image Layer 2" offsetx="472" offsety="1516" repeatx="1">
  <image source="../../../../Dystopia-App-Web/public/Desert_background_2.png" width="256" height="242"/>
 </imagelayer>
 <layer id="1" name="ground_layer" width="64" height="16">
  <data encoding="csv">
0,0,0,0,0,0,0,0,0,0,0,0,0,0,0,0,0,0,0,0,0,0,0,0,0,0,0,0,0,0,0,0,0,0,0,0,0,0,0,0,0,0,0,0,0,0,0,0,0,0,0,0,0,0,0,0,0,0,0,0,0,0,0,0,
0,0,0,0,0,0,0,0,0,0,0,0,0,0,0,0,0,0,0,0,0,0,0,0,0,0,0,0,0,0,0,0,0,0,0,0,0,0,0,0,0,0,0,0,0,0,0,0,0,0,0,0,0,0,0,0,0,0,0,0,0,0,0,0,
0,0,0,0,0,0,0,0,0,0,0,0,0,0,0,0,0,0,0,0,0,0,0,0,0,0,0,0,0,0,0,0,0,0,0,0,0,0,0,0,0,0,0,0,0,0,0,0,0,0,0,0,0,0,0,0,0,0,0,0,0,0,0,0,
0,0,0,0,0,0,0,0,0,14,0,0,0,0,0,0,0,0,0,0,0,0,0,0,0,0,0,0,0,0,0,0,0,0,0,0,0,0,0,0,0,0,0,0,14,14,14,14,14,0,0,0,14,14,14,0,0,0,0,0,0,0,0,0,
0,0,0,0,0,0,0,14,0,0,14,0,14,0,0,0,0,0,0,14,0,14,14,0,0,0,0,0,0,0,0,0,0,0,0,0,0,0,0,0,0,0,0,0,0,0,0,0,0,0,0,0,0,0,0,0,0,0,0,0,0,0,0,0,
0,0,14,14,0,14,0,0,0,0,0,0,0,0,0,14,14,0,0,0,0,0,0,0,0,14,14,14,14,0,0,0,0,14,0,0,0,0,0,0,0,0,0,0,0,0,0,0,0,0,0,0,0,0,0,0,0,0,14,14,14,0,14,14,
0,0,0,0,0,0,0,0,0,0,0,0,0,0,0,0,0,0,0,0,0,0,0,0,0,0,0,0,0,0,0,14,0,14,14,0,0,0,0,0,0,0,0,0,0,0,0,0,0,0,0,0,0,0,0,0,0,0,0,0,14,14,0,0,
0,0,0,0,0,0,0,0,0,0,0,0,0,0,0,0,0,0,0,0,0,0,0,0,0,0,0,0,0,0,0,0,0,0,0,0,0,0,0,0,0,0,0,0,0,0,0,0,0,0,0,0,0,0,0,0,0,0,0,0,0,0,0,0,
0,0,0,0,0,0,0,0,0,0,0,0,0,0,0,0,0,0,0,0,0,0,0,0,0,0,0,0,0,0,0,0,0,0,0,0,0,0,0,0,0,0,0,0,0,0,0,0,0,0,0,0,0,0,0,0,0,0,0,0,0,0,0,0,
0,0,0,0,0,0,0,0,0,0,0,0,0,0,0,0,0,0,0,0,0,0,0,0,0,0,0,0,0,0,0,0,0,0,0,0,0,0,0,0,0,0,0,0,0,63,64,64,64,0,0,0,64,64,65,0,0,0,0,0,0,0,0,0,
0,0,0,0,0,0,0,0,0,0,0,0,0,0,0,0,0,0,0,0,0,0,0,0,0,0,0,0,0,0,0,0,0,0,0,0,0,0,0,0,0,0,0,0,63,67,66,66,66,0,0,0,66,66,68,65,0,0,0,0,0,0,0,0,
0,0,0,41,0,0,0,0,0,0,0,0,0,0,0,0,0,0,0,0,0,0,0,0,0,0,0,0,64,64,0,0,0,0,0,0,0,0,0,0,0,0,0,63,67,66,66,66,66,0,0,0,66,66,66,68,65,0,0,0,0,0,0,0,
0,65,0,0,0,0,0,0,0,0,0,0,63,64,65,0,0,63,64,65,0,0,0,63,64,65,0,64,66,66,64,63,64,64,0,63,64,64,64,64,64,64,64,67,66,66,66,66,0,0,0,0,66,66,66,66,68,64,64,64,64,64,64,64,
0,68,64,64,64,64,64,64,64,64,64,64,67,66,68,64,64,67,66,68,64,64,64,67,66,68,64,66,66,66,66,66,66,66,0,66,66,66,66,66,66,66,66,66,66,66,66,0,0,0,0,0,66,66,66,66,66,66,66,66,66,66,66,66,
0,66,66,66,66,66,66,66,66,66,66,66,66,66,66,66,66,66,66,66,66,66,66,66,66,66,66,66,66,66,66,66,66,66,0,66,66,66,66,66,66,66,66,66,66,66,0,0,0,0,0,0,66,66,66,66,66,66,66,66,66,66,66,66,
0,0,0,0,0,0,0,0,0,0,0,0,0,0,0,0,0,0,0,0,0,0,0,0,0,0,0,0,0,0,0,0,0,0,0,0,0,0,0,0,0,0,0,0,0,0,0,0,0,0,0,0,0,0,0,0,0,0,0,0,0,0,0,0
</data>
 </layer>
</map>
